X: 5
T: The Road To Skye
R: jig
M: 6/8
L: 1/8
K: Gmaj
~G3 EGD | GBd e2d| gBB BAB | cBc E2D |GFG E/F/GD | GBd e2f| gBB BAB | cAF G2F :|GBd GBd | GBd cAF | GBd eag | fd^c def|~g3 ~f3 | e/f/ge dcB | cBc Adc | BGG G2F :|


Tune 1709	Setting 15131

